X: 1
T:Cannon in D
T:Continuo part (cello and/or chord instrument) 
C:Johann Pachelbel

V:1 Program 1 40 %Violin
V:2 Program 2 40 %Violin
V:3 Program 3 40 %Violin
V:4 Program 4 42 %Cello
M:C
L:1/8
Q:1/4=80
K:D
V:1
z8|z8|z8|z8|
V:2
z8|z8|z8|z8|
V:3
z8|z8|z8|z8|
V:4
D,4A,,4|B,,4F,,4|G,,4D,,4|G,,4A,,4|

V:1
f4e4|d4c4|B4A4|B4c4|
V:2
z8|z8|z8|z8|
V:3
z8|z8|z8|z8|
V:4
D,4A,,4|B,,4F,,4|G,,4D,,4|G,,4A,,4|

V:1
d4c4|B4A4|G4F4|G4E4|
V:2
f4e4|d4c4|B4A4|B4c4|
V:3
z8|z8|z8|z8|
V:4
D,4A,,4|B,,4F,,4|G,,4D,,4|G,,4A,,4|

V:1
D2F2A2G2|F2D2F2E2|D2B,2D2A2|G2B2A2G2|
V:2
d4c4|B4A4|G4F4|G4E4|
V:3
f4e4|d4c4|B4A4|B4c4|
V:4
D,4A,,4|B,,4F,,4|G,,4D,,4|G,,4A,,4|

V:1
F2D2E2C2|d2f2a2A2|B2G2A2F2|D2d2 Md3c|
V:2
D2F2A2G2|F2D2F2E2|D2B,2D2A2|G2B2A2G2|
V:3
d4c4|B4A4|G4F4|G4E4|
V:4
D,4A,,4|B,,4F,,4|G,,4D,,4|G,,4A,,4|

V:1
dcdD CAEF|DdcB cfab|gfeg fedc|BAGF EGFE|
V:2
F2D2E2C2|d2f2a2A2|B2G2A2F2|D2d2 Md3c|
V:3
D2F2A2G2|F2D2F2E2|D2B,2D2A2|G2B2A2G2|
V:4
D,4A,,4|B,,4F,,4|G,,4D,,4|G,,4A,,4|

V:1
DEFG AEAG|FBAG AGFE|DB,Bc dcBA|GfeB ABAG|
V:2
dcdD CAEF|DdcB cfab|gfeg fedc|BAGF EGFE|
V:3
F2D2E2C2|d2f2a2A2|B2G2A2F2|D2d2 Md3c|
V:4
D,4A,,4|B,,4F,,4|G,,4D,,4|G,,4A,,4|

V:1
F2f2e4|z2d2f4|b4a4|b4c'4|
V:2
DEFG AEAG|FBAG AGFE|DB,Bc dcBA|GfeB ABAG|
V:3
dcdD CAEF|DdcB cfab|gfeg fedc|BAGF EGFE|
V:4
D,4A,,4|B,,4F,,4|G,,4D,,4|G,,4A,,4|

V:1
d'2d2c4|z2B2d4|d6d2|d2g2e2a2|
V:2
F2f2e4|z2d2f4|b4a4|b4c'4|
V:3
DEFG AEAG|FBAG AGFE|DB,Bc dcBA|GfeB ABAG|
V:4
D,4A,,4|B,,4F,,4|G,,4D,,4|G,,4A,,4|

V:1
af/g/ af/g/ a/A/B/c/ d/e/f/g/|fd/e/ fF/G/ F/E/D/E/ F/G/A/B/|GB/A/ Bc/d/ A/B/c/d/ e/f/g/a/|
V:2
d'2d2c4|z2B2d4|d6d2|d2g2e2a2|
V:3
F2f2e4|z2d2f4|b4a4|b4c'4|
V:4
D,4A,,4|B,,4F,,4|G,,4D,,4|G,,4A,,4|

V:1
fd/e/ fe/d/ e/c/d/e/ f/e/d/c/|Bd/c/ BA/G/ A/G/F/G/ A/B/c/d/|Bd/c/ dc/B/ c/d/e/d/ c/d/B/c/|
V:2
af/g/ af/g/ a/A/B/c/ d/e/f/g/|fd/e/ fF/G/ F/E/D/E/ F/G/A/B/|GB/A/ Bc/d/ A/B/c/d/ e/f/g/a/|
V:3
d'2d2c4|z2B2d4|d6d2|d2g2e2a2|
V:4
D,4A,,4|B,,4F,,4|G,,4D,,4|G,,4A,,4|

V:1
d2 z2 c2 z2|B2 z2 d2 z2|D2z2D2z2|D2z2E2z2|
V:2
fd/e/ fe/d/ e/c/d/e/ f/e/d/c/|Bd/c/ BA/G/ A/G/F/G/ A/B/c/d/|Bd/c/ dc/B/ c/d/e/d/ c/d/B/c/|
V:3
af/g/ af/g/ a/A/B/c/ d/e/f/g/|fd/e/ fF/G/ F/E/D/E/ F/G/A/B/|GB/A/ Bc/d/ A/B/c/d/ e/f/g/a/|
V:4
D,4A,,4|B,,4F,,4|G,,4D,,4|G,,4A,,4|

V:1
z2A2z2A2|z2F2z2A2|z2G2z2F2|z2G2z2e2|
V:2
d2 z2 c2 z2|B2 z2 d2 z2|D2z2D2z2|D2z2E2z2|
V:3
fd/e/ fe/d/ e/c/d/e/ f/e/d/c/|Bd/c/ BA/G/ A/G/F/G/ A/B/c/d/|Bd/c/ dc/B/ c/d/e/d/ c/d/B/c/|
V:4
D,4A,,4|B,,4F,,4|G,,4D,,4|G,,4A,,4|

V:1
fFGF Eefe|dFDB AA,G,A,|B,BcB AA,G,A,|B,BAB CCB,C|
V:2
z2A2z2A2|z2F2z2A2|z2G2z2F2|z2G2z2e2|
V:3
d2 z2 c2 z2|B2 z2 d2 z2|D2z2D2z2|D2z2E2z2|
V:4
D,4A,,4|B,,4F,,4|G,,4D,,4|G,,4A,,4|

V:1
Dded cCDC|B,BAB cCFE|Ddeg fFAf|dgfg eAGA|
V:2
fFGF Eefe|dFDB AA,G,A,|B,BcB AA,G,A,|B,BAB CCB,C|
V:3
z2A2z2A2|z2F2z2A2|z2G2z2F2|z2G2z2e2|
V:4
D,4A,,4|B,,4F,,4|G,,4D,,4|G,,4A,,4|

V:1
FAAA AAAA|FFFF FFAA|GGGd dddd|ddBB AAec|
V:2
Dded cCDC|B,BAB cCFE|Ddeg fFAf|dgfg eAGA|
V:3
fFGF Eefe|dFDB AA,G,A,|B,BcB AA,G,A,|B,BAB CCB,C|
V:4
D,4A,,4|B,,4F,,4|G,,4D,,4|G,,4A,,4|

V:1
Afff eeee|dddd aaaa|bbbb aaaa|bbbbc'ccc|
V:2
FAAA AAAA|FFFF FFAA|GGGd dddd|ddBB AAec|
V:3
Dded cCDC|B,BAB cCFE|Ddeg fFAf|dgfg eAGA|
V:4
D,4A,,4|B,,4F,,4|G,,4D,,4|G,,4A,,4|

V:1
dD/E/ FD Cc/d/ ec|BB,/C/ DB, CA/G/ FE|DG/F/ EG FD/E/ FA|GB/A/ GF EA/G/ FF|
V:2
Afff eeee|dddd aaaa|bbbb aaaa|bbbbc'ccc|
V:3
FAAA AAAA|FFFF FFAA|GGGd dddd|ddBB AAec|
V:4
D,4A,,4|B,,4F,,4|G,,4D,,4|G,,4A,,4|

V:1
Fd/c/ dF AA/B/ cA|Fd/e/ fd ff/e/ dc|BB/A/ Bc df/e/ df|gd/c/ BB AEAA|
V:2
dD/E/ FD Cc/d/ ec|BB,/C/ DB, CA/G/ FE|DG/F/ EG FD/E/ FA|GB/A/ GF EA/G/ FF|
V:3
Afff eeee|dddd aaaa|bbbb aaaa|bbbbc'ccc|
V:4
D,4A,,4|B,,4F,,4|G,,4D,,4|G,,4A,,4|

V:1
A6A2|D6A2|G4A4|G2D2 MD3C|
V:2
Fd/c/ dF AA/B/ cA|Fd/e/ fd ff/e/ dc|BB/A/ Bc df/e/ df|gd/c/ BB AEAA|
V:3
dD/E/ FD Cc/d/ ec|BB,/C/ DB, CA/G/ FE|DG/F/ EG FD/E/ FA|GB/A/ GF EA/G/ FF|
V:4
D,4A,,4|B,,4F,,4|G,,4D,,4|G,,4A,,4|

V:1
D2d2c4|B4A4|D3EF4|B4E3E|
V:2
A6A2|D6A2|G4A4|G2D2 MD3C|
V:3
Fd/c/ dF AA/B/ cA|Fd/e/ fd ff/e/ dc|BB/A/ Bc df/e/ df|gd/c/ BB AEAA|
V:4
D,4A,,4|B,,4F,,4|G,,4D,,4|G,,4A,,4|

V:1
F3f fgfe|d3d dedc|B4d4|d=cBc A3A|
V:2
D2d2c4|B4A4|D3EF4|B4E3E|
V:3
A6A2|D6A2|G4A4|G2D2 MD3C|
V:4
D,4A,,4|B,,4F,,4|G,,4D,,4|G,,4A,,4|

V:1
A3a abag|f3f fgfe|d=cB=c A3A|G2d2 c3c|
V:2
F3f fgfe|d3d dedc|B4d4|d=cBc A3A|
V:3
D2d2c4|B4A4|D3EF4|B4E3E|
V:4
D,4A,,4|B,,4F,,4|G,,4D,,4|G,,4A,,4|

V:1
d2d4 c2-|c2B4 A2-|A2G4 F2-|F3EE4|
V:2
A3a abag|f3f fgfe|d=cB=c A3A|G2d2 c3c|
V:3
F3f fgfe|d3d dedc|B4d4|d=cBc A3A|
V:4
D,4A,,4|B,,4F,,4|G,,4D,,4|G,,4A,,4|

V:1
F2f4e2|d2d'4=c'2|b4d'2a2|a4a4|
V:2
d2d4 c2-|c2B4 A2-|A2G4 F2-|F3EE4|
V:3
A3a abag|f3f fgfe|d=cB=c A3A|G2d2 c3c|
V:4
D,4A,,4|B,,4F,,4|G,,4D,,4|G,,4A,,4|

V:1
a4A3G|F4 f3e|d6d2|d4c4|
V:2
F2f4e2|d2d'4=c'2|b4d'2a2|a4a4|
V:3
d2d4 c2-|c2B4 A2-|A2G4 F2-|F3EE4|
V:4
D,4A,,4|B,,4F,,4|G,,4D,,4|G,,4A,,4|

V:1
d2D2 C2c2|B2B,2A,2A2|G2g2f2F2|G2d2A2e2|
V:2
a4A3G|F4 f3e|d6d2|d4c4|
V:3
F2f4e2|d2d'4=c'2|b4d'2a2|a4a4|
V:4
D,4A,,4|B,,4F,,4|G,,4D,,4|G,,4A,,4|

V:1
f2F2 E2e2|d2D2 C2c2|B2b2 a2A2|G3e A2A2|A8|]
V:2
d2D2 C2c2|B2B,2A,2A2|G2g2f2F2|G2d2A2e2|f8|]
V:3
a4A3G|F4 f3e|d6d2|d4c4|d8|]
V:4
D,4A,,4|B,,4F,,4|G,,4D,,4|G,,4A,,4|D,,8|]

